X: 483
T: Friendship to every willing mind
%R: march
Z: 2018 John Chambers <jc:trillian.mit.edu>
B: John Treat - "Gamut for the Fifes", 1779, p.48 #3
F: https://archive.org/details/GamutFortheFifes
M: none
L: 1/8
K: C
% - - - - - - - - - - - - - - - - - - - - - - - - -
|:\
A4 A4 | G2d2 c4 | e4 d2B2 | c4 d4 ::\
d4 d2d2 | d2d2 d4 | (dc)(de) f2d2 | c2d2 c4 |\
A4 A4 | e2d2 c4 | e4 d2e2 | c4 d4 ::
% - - - - - - - - - - - - - - - - - - - - - - - - -
